X: 1252
T: Bert Hohn's Shottische
B: australian traditional tunes wiki
M:4/4
L:1/8
R: Schottische
Q: 1/4=100
K:G
V:1 
"G"G>B d>ba2g2|"D"f>e f<e d>ef2|"D"A>B c>df2f>d|e2d2 "G"B2-B2|
"G"G>B d>ba2g2|"D"f>e f<e d>ef2|"D"A>B c>df2f>e|d2a2 "G"g2-g2||
"G"G>A B>dc2B2|B<c d<c "D"A3G|F>G A<B c>B c<d|"C"e2d2 "G"B2-B2|
"G"G>A B>dc2B2|"G"B<c B<c "D"A3G|"D"F>G A<c "C"e>c "A"A<F|"G"G2"D"B2"G"G2-G2||
% abcbook-tune_id 6342d53acf7981a8dfa08a3d


% abcbook-boost 0
% abcbook-tablature 
% abcbook-transpose 
% abcbook-lastupdated 1665324356084
% abcbook-soundfonts 
% abcbook-repeats 1
% NFF Book 2007

